icons/tools-16.svg

<svg width="16" height="16" viewBox="0 0 16 16" xmlns="http://www.w3.org/2000/svg">
  <path fill-rule="evenodd" clip-rule="evenodd" d="M5.4326 2.30426C5.43065 2.30546 5.42841 2.30693 5.42587 2.3087C4.26004 3.1234 3.5 4.47315 3.5 6.00031C3.5 7.59807 4.33215 9.00199 5.59024 9.80151C6.10782 10.1304 6.51858 10.7248 6.49161 11.4421L6.49129 11.4505L6.32816 14.7869C6.30794 15.2006 5.95616 15.5196 5.54244 15.4993C5.12872 15.4791 4.80973 15.1273 4.82995 14.7136L4.99275 11.3831C4.99476 11.2989 4.94333 11.1677 4.78571 11.0675C3.11278 10.0044 2 8.13254 2 6.00031C2 3.96262 3.01648 2.16245 4.56666 1.07917C5.11583 0.695405 5.75954 0.732358 6.23975 1.03989C6.70159 1.33567 7 1.86697 7 2.46312V5.28217C7 5.36499 7.04103 5.44245 7.10955 5.48898L7.85955 5.99832C7.94433 6.0559 8.05567 6.0559 8.14045 5.99832L8.89045 5.48898C8.95897 5.44245 9 5.365 9 5.28217V2.46312C9 1.86697 9.29841 1.33567 9.76025 1.03989C10.2405 0.732358 10.8842 0.695405 11.4333 1.07917C12.9835 2.16245 14 3.96262 14 6.00031C14 8.13254 12.8872 10.0044 11.2143 11.0675C11.0567 11.1677 11.0052 11.2989 11.0073 11.3831L11.17 14.7136C11.1903 15.1273 10.8713 15.4791 10.4576 15.4993C10.0438 15.5196 9.69206 15.2006 9.67184 14.7869L9.50835 11.4421C9.48137 10.7248 9.89218 10.1304 10.4098 9.80151C11.6679 9.00199 12.5 7.59807 12.5 6.00031C12.5 4.47315 11.74 3.1234 10.5741 2.3087C10.5716 2.30693 10.5694 2.30546 10.5674 2.30426C10.5434 2.32074 10.5 2.37147 10.5 2.46312V5.28217C10.5 5.86197 10.2128 6.40414 9.73317 6.72988L8.98317 7.23922C8.38969 7.64227 7.61031 7.64227 7.01683 7.23922L6.26683 6.72988C5.78717 6.40414 5.5 5.86197 5.5 5.28217V2.46312C5.5 2.37147 5.45664 2.32074 5.4326 2.30426ZM5.44279 2.29898C5.4433 2.29884 5.44279 2.299 5.44279 2.29898Z"/>
</svg>

<svg xmlns="http://www.w3.org/2000/svg" width="16" height="16" viewBox="0 0 16 16"><path fill-rule="evenodd" d="M5.433 2.304A4.494 4.494 0 003.5 6c0 1.598.832 3.002 2.09 3.802.518.328.929.923.902 1.64v.008l-.164 3.337a.75.75 0 11-1.498-.073l.163-3.33c.002-.085-.05-.216-.207-.316A5.996 5.996 0 012 6a5.994 5.994 0 012.567-4.92 1.482 1.482 0 011.673-.04c.462.296.76.827.76 1.423v2.82c0 .082.041.16.11.206l.75.51a.25.25 0 00.28 0l.75-.51A.25.25 0 009 5.282V2.463c0-.596.298-1.127.76-1.423a1.482 1.482 0 011.673.04A5.994 5.994 0 0114 6a5.996 5.996 0 01-2.786 5.068c-.157.1-.209.23-.207.315l.163 3.33a.75.75 0 11-1.498.074l-.164-3.345c-.027-.717.384-1.312.902-1.64A4.496 4.496 0 0012.5 6a4.494 4.494 0 00-1.933-3.696c-.024.017-.067.067-.067.16v2.818a1.75 1.75 0 01-.767 1.448l-.75.51a1.75 1.75 0 01-1.966 0l-.75-.51A1.75 1.75 0 015.5 5.282V2.463c0-.092-.043-.142-.067-.159zm.01-.005z"/></svg>
